X:1
T:Brudmarsch frn Ns finnmark
R:Marsch
S:Herman Strmberg
S:Kalle Almlf
S:Fafner
Z:Transkription gjord av Linus efter Fafners http://www.youtube.com/watchv=9ndMT2Wm1j8|youtubevideo, 29 okt -08
O:Ns finnmark, Dalarna
H:Utlrd av Kalle Almlf till Fafner. Fafner menar i videokommentaren att Kalle lrde den av Herman Strmberg (1882-1967) som troligen lrde av Lejsme-Per (1827-1907).
M:2/4
L:1/8
K:Dm
A2A^G | A^CDE | F2FG | F2ED | EGAG | FED^C | D4- | D3 F |
FEED | DCC^B, | ^B,CC2
